Catalina-dark/actions/16/object-rotate-left.svg

<?xml version="1.0" encoding="UTF-8" standalone="no"?>
<svg
   xmlns:dc="http://purl.org/dc/elements/1.1/"
   xmlns:cc="http://creativecommons.org/ns#"
   xmlns:rdf="http://www.w3.org/1999/02/22-rdf-syntax-ns#"
   xmlns:svg="http://www.w3.org/2000/svg"
   xmlns="http://www.w3.org/2000/svg"
   xmlns:sodipodi="http://sodipodi.sourceforge.net/DTD/sodipodi-0.dtd"
   xmlns:inkscape="http://www.inkscape.org/namespaces/inkscape"
   width="16"
   height="16"
   viewBox="0 0 16 16"
   version="1.1"
   id="svg7"
   sodipodi:docname="object-rotate-left.svg"
   inkscape:version="0.92.4 5da689c313, 2019-01-14">
  <metadata
     id="metadata11">
    <rdf:RDF>
      <cc:Work
         rdf:about="">
        <dc:format>image/svg+xml</dc:format>
        <dc:type
           rdf:resource="http://purl.org/dc/dcmitype/StillImage" />
      </cc:Work>
    </rdf:RDF>
  </metadata>
  <sodipodi:namedview
     pagecolor="#ffffff"
     bordercolor="#666666"
     borderopacity="1"
     objecttolerance="10"
     gridtolerance="10"
     guidetolerance="10"
     inkscape:pageopacity="0"
     inkscape:pageshadow="2"
     inkscape:window-width="640"
     inkscape:window-height="480"
     id="namedview9"
     showgrid="false"
     inkscape:zoom="14.75"
     inkscape:cx="6.8135593"
     inkscape:cy="8"
     inkscape:window-x="0"
     inkscape:window-y="26"
     inkscape:window-maximized="0"
     inkscape:current-layer="svg7" />
  <defs
     id="defs3">
    <style
       id="current-color-scheme"
       type="text/css">
   .ColorScheme-Text { color:#5c616c; } .ColorScheme-Highlight { color:#5294e2; }
  </style>
  </defs>
  <path
     style="fill:#f1f6f8;fill-opacity:0.8509804"
     class="ColorScheme-Text"
     d="M 8.0292969 0.001953125 L 4.0292969 3.0019531 L 8.0292969 6.0019531 L 8.0292969 4.0019531 C 10.238397 4.0019531 12.029297 5.7928531 12.029297 8.0019531 C 12.029297 10.211053 10.238397 12.001953 8.0292969 12.001953 C 5.8201969 12.001953 4.0292969 10.211053 4.0292969 8.0019531 A 1 1 0 0 0 3.0292969 7.0019531 A 1 1 0 0 0 2.0292969 8.0019531 A 1 1 0 0 0 2.0351562 8.1015625 C 2.0889563 11.368762 4.7491969 14.001953 8.0292969 14.001953 C 11.342997 14.001953 14.029297 11.315653 14.029297 8.0019531 C 14.029297 4.6882531 11.342997 2.0019531 8.0292969 2.0019531 L 8.0292969 0.001953125 z"
     id="path5" />
</svg>

<svg width="16" height="16" version="1.1" viewBox="0 0 16 16" xmlns="http://www.w3.org/2000/svg">
<defs>
<style id="current-color-scheme" type="text/css">.ColorScheme-Text { color:#5c616c; } .ColorScheme-Highlight { color:#5294e2; }</style>
</defs>
<path class="ColorScheme-Text" d="m8.0293 0.0019531-4 3 4 3v-2c2.2091 0 4 1.7909 4 4 0 2.2091-1.7909 4-4 4-2.2091 0-4-1.7909-4-4a1 1 0 0 0-1-1 1 1 0 0 0-1 1 1 1 0 0 0 0.0058593 0.099609c0.0538 3.2672 2.714 5.9004 5.9941 5.9004 3.3137 0 6-2.6863 6-6 0-3.3137-2.6863-6-6-6v-2z" fill="#f1f6f8" fill-opacity=".85098"/>
</svg>
